images/partners/parters-12.svg

<svg width="150" height="150" viewBox="0 0 150 150" fill="none" xmlns="http://www.w3.org/2000/svg">
<g clip-path="url(#clip0_282_8089)">
<g clip-path="url(#clip1_282_8089)">
<path d="M18.3588 91.1112C27.8844 91.1112 35.6065 83.4005 35.6065 73.889C35.6065 64.3774 27.8844 56.6667 18.3588 56.6667C8.83315 56.6667 1.11108 64.3774 1.11108 73.889C1.11108 83.4005 8.83315 91.1112 18.3588 91.1112Z" fill="#282525"/>
<path d="M28.8808 76.3092C28.3018 76.8192 27.5581 77.1037 26.7861 77.1106C26.2654 77.1153 25.7515 76.9934 25.2885 76.7555C24.8256 76.5176 24.4276 76.1709 24.1287 75.7452C23.8298 75.3195 23.6392 74.8276 23.5731 74.312C23.507 73.7963 23.5675 73.2723 23.7494 72.7852C23.9313 72.2981 24.2291 71.8625 24.6172 71.5159C25.0052 71.1693 25.4719 70.9221 25.9769 70.7957C26.4819 70.6693 27.0101 70.6674 27.516 70.7903C28.0219 70.9131 28.4903 71.157 28.8808 71.5008L29.5068 70.7795C28.9042 70.2587 28.1643 69.9218 27.3753 69.809C26.5863 69.6962 25.7815 69.8122 25.0567 70.1432C24.3319 70.4743 23.7177 71.0064 23.2872 71.6762C22.8567 72.3459 22.6281 73.1252 22.6286 73.921C22.6247 74.7183 22.8513 75.4998 23.2811 76.1717C23.711 76.8437 24.3259 77.3775 25.052 77.7092C25.7781 78.0408 26.5847 78.1562 27.3749 78.0415C28.1651 77.9268 28.9053 77.5869 29.5068 77.0626L28.8808 76.3092ZM20.2449 72.6308C20.2428 71.8981 19.9504 71.1961 19.4316 70.6781C18.9128 70.16 18.2097 69.868 17.476 69.8659H7.84485V77.88H8.79994V75.3636H11.601V74.4099H8.79994V70.7875H13.6155V77.88H14.5706V75.3636H17.5161C17.6884 75.3638 17.8604 75.3477 18.0297 75.3155L19.1373 77.88H20.1486L18.8966 74.9789C19.3046 74.7363 19.643 74.3928 19.8792 73.9814C20.1154 73.5701 20.2414 73.1049 20.2449 72.6308ZM17.476 74.4419H14.5305V70.8196H17.476C17.957 70.8196 18.4184 71.0104 18.7586 71.35C19.0987 71.6897 19.2898 72.1504 19.2898 72.6308C19.2898 73.1111 19.0987 73.5718 18.7586 73.9115C18.4184 74.2511 17.957 74.4419 17.476 74.4419Z" fill="white"/>
<path d="M24.1442 67.3797L23.2745 66.9856L21.0091 71.9699L21.8788 72.364L24.1442 67.3797Z" fill="#DB0A88"/>
<path d="M125.938 76.3333C124.798 76.3371 123.674 76.065 122.663 75.5403C121.651 75.0156 120.782 74.2539 120.129 73.3204C119.477 72.3869 119.061 71.3094 118.916 70.1802C118.772 69.051 118.904 67.9037 119.301 66.8366C119.698 65.7695 120.348 64.8143 121.195 64.0528C122.043 63.2913 123.062 62.7462 124.167 62.4642C125.271 62.1822 126.428 62.1716 127.537 62.4334C128.647 62.6952 129.676 63.2217 130.537 63.9676L131.91 62.3647C130.583 61.2173 128.953 60.4748 127.216 60.2256C125.478 59.9765 123.706 60.2313 122.109 60.9596C120.513 61.688 119.159 62.8592 118.21 64.3337C117.261 65.8083 116.757 67.5241 116.757 69.2769C116.757 71.0296 117.261 72.7455 118.21 74.22C119.159 75.6946 120.513 76.8658 122.109 77.5941C123.706 78.3224 125.478 78.5772 127.216 78.3281C128.953 78.079 130.583 77.3365 131.91 76.189L130.537 74.5862C129.266 75.7039 127.632 76.3245 125.938 76.3333ZM111.042 74.5221L100.608 60.4414H98.5137V78.1364H100.608V64.0637L111.042 78.1364H113.137V60.4414H111.042V74.5221ZM43.1429 78.1364H45.2457V70.3387H54.5317V68.2471H45.2697V62.5411H56.1609V60.4414H43.1669L43.1429 78.1364ZM80.5758 78.1364H93.5617V76.0448H82.6946V70.3387H91.9806V68.2471H82.6946V62.5411H93.5858V60.4414H80.5999L80.5758 78.1364ZM147.568 60.4414V68.2471H137.72V60.4414H135.626V78.1364H137.72V70.3387H147.568V78.1364H149.663V60.4414H147.568ZM75.0941 66.524C75.092 64.9115 74.4495 63.3656 73.3075 62.2253C72.1656 61.085 70.6173 60.4435 69.0024 60.4414H60.0936V78.1364H62.1884V72.6067H69.0265C69.4094 72.6037 69.7911 72.5634 70.1662 72.4865L72.5739 78.0964H74.7891L72.0362 71.6851C72.9551 71.1668 73.7226 70.4181 74.2631 69.513C74.8036 68.6079 75.0983 67.5777 75.1181 66.524H75.0941ZM69.0024 70.5311H62.1643V62.5731H69.0024C69.5654 62.5062 70.1363 62.5592 70.6773 62.7287C71.2183 62.8981 71.7172 63.1801 72.1411 63.556C72.5651 63.932 72.9044 64.3934 73.1368 64.9098C73.3692 65.4262 73.4893 65.9859 73.4893 66.5521C73.4893 67.1182 73.3692 67.678 73.1368 68.1944C72.9044 68.7108 72.5651 69.1722 72.1411 69.5482C71.7172 69.9241 71.2183 70.2061 70.6773 70.3755C70.1363 70.5449 69.5654 70.5979 69.0024 70.5311Z" fill="#282525"/>
<path d="M82.815 83.1052C82.4767 83.1034 82.1418 83.1728 81.8322 83.3088C81.5226 83.4449 81.2452 83.6445 81.018 83.8948C80.7909 84.1451 80.6191 84.4403 80.5138 84.7613C80.4086 85.0823 80.3723 85.4219 80.4072 85.7578C80.3771 86.0843 80.4154 86.4134 80.5199 86.7242C80.6244 87.0349 80.7927 87.3205 81.0141 87.5626C81.2354 87.8047 81.5049 87.9981 81.8053 88.1303C82.1058 88.2625 82.4305 88.3306 82.7588 88.3304C84.2356 88.3304 85.1666 87.2885 85.1666 85.6697C85.1994 85.3431 85.1627 85.0133 85.0591 84.7019C84.9555 84.3904 84.7872 84.1043 84.5652 83.8622C84.3433 83.6202 84.0726 83.4276 83.771 83.2972C83.4694 83.1667 83.1437 83.1013 82.815 83.1052ZM82.815 87.3687C82.0124 87.3687 81.6111 86.5673 81.6111 85.7659C81.6111 84.9645 81.9241 84.0989 82.815 84.0989C83.7059 84.0989 84.0189 84.9484 84.0189 85.7017C83.9868 86.7275 83.5132 87.3767 82.7829 87.3767L82.815 87.3687ZM77.8148 88.2582H78.9385V83.1933H77.8068L77.8148 88.2582ZM51.4978 87.1122L51.4096 86.7756C51.348 86.4199 51.1599 86.0984 50.8798 85.87C51.077 85.7618 51.2457 85.6084 51.3719 85.4223C51.4981 85.2362 51.5782 85.0228 51.6056 84.7998C51.6331 84.5768 51.607 84.3504 51.5297 84.1394C51.4523 83.9283 51.3259 83.7387 51.1608 83.586C50.7053 83.2658 50.1504 83.1181 49.5957 83.1693C49.1411 83.166 48.6872 83.2036 48.2393 83.2815H48.135V88.2582H49.2425V86.3108H49.5556C49.9569 86.3108 50.1575 86.431 50.302 87.0561C50.3748 87.4529 50.485 87.842 50.631 88.2182V88.2903H51.8189L51.7226 88.1059C51.6266 87.7798 51.5516 87.4479 51.4978 87.1122ZM49.6599 85.3972H49.2425V84.115C49.3815 84.1042 49.521 84.1042 49.6599 84.115C50.0291 84.115 50.4625 84.2271 50.4625 84.7561C50.4625 85.285 50.1655 85.3892 49.6599 85.3892V85.3972ZM74.9576 85.2289C74.2995 84.9725 74.155 84.8282 74.155 84.5557C74.155 84.2832 74.3316 84.1069 74.8212 84.1069C75.1357 84.1039 75.4465 84.1753 75.7281 84.3153L75.8726 84.3954L76.1455 83.4337L76.0571 83.3857C75.6796 83.2045 75.264 83.1166 74.8453 83.1292C73.7618 83.1292 73.0073 83.7463 73.0073 84.6439C73.0073 85.3251 73.4648 85.8219 74.3958 86.1585C75.0379 86.3909 75.1984 86.5833 75.1984 86.8397C75.1984 87.0962 74.9175 87.3687 74.452 87.3687C74.0594 87.3766 73.671 87.2885 73.3203 87.1122L73.1759 87.0241L72.911 88.0018L72.9913 88.0579C73.4166 88.2726 73.8871 88.3825 74.3637 88.3784C75.8083 88.3784 76.314 87.529 76.314 86.7756C76.314 86.0223 75.8726 85.5575 74.9255 85.2209L74.9576 85.2289ZM55.3422 83.1052C55.004 83.1034 54.6691 83.1728 54.3595 83.3088C54.0499 83.4449 53.7725 83.6445 53.5453 83.8948C53.3181 84.1451 53.1463 84.4403 53.0411 84.7613C52.9358 85.0823 52.8995 85.4219 52.9345 85.7578C52.9043 86.0843 52.9427 86.4134 53.0472 86.7242C53.1517 87.0349 53.32 87.3205 53.5413 87.5626C53.7627 87.8047 54.0321 87.9981 54.3326 88.1303C54.633 88.2625 54.9578 88.3306 55.2861 88.3304C56.7629 88.3304 57.6939 87.2885 57.6939 85.6697C57.7266 85.3431 57.69 85.0133 57.5864 84.7019C57.4828 84.3904 57.3145 84.1043 57.0925 83.8622C56.8706 83.6202 56.5999 83.4276 56.2983 83.2972C55.9967 83.1667 55.6709 83.1013 55.3422 83.1052ZM55.3422 87.3687C54.5396 87.3687 54.1383 86.5673 54.1383 85.7659C54.1383 84.9645 54.4514 84.0989 55.3422 84.0989C56.2331 84.0989 56.5461 84.9484 56.5461 85.7017C56.514 86.7275 56.0405 87.3767 55.3101 87.3767L55.3422 87.3687ZM64.9733 86.1185H66.7872V85.1568H64.9733V84.1711H66.8915V83.1933H63.8417V88.2582H67.0039V87.2805H64.9733V86.1185ZM59.2348 88.2582H60.3665V86.2066H62.084V85.2369H60.3103V84.1711H62.2205V83.1933H59.1786L59.2348 88.2582ZM70.3427 85.2129C69.6846 84.9564 69.5 84.8122 69.5 84.5397C69.5 84.2672 69.6766 84.0909 70.1661 84.0909C70.4807 84.0878 70.7915 84.1592 71.0731 84.2993L71.2175 84.3794L71.4904 83.4177L71.4021 83.3697C71.0011 83.1728 70.5562 83.0817 70.1099 83.1052C69.0264 83.1052 68.272 83.7223 68.272 84.6199C68.272 85.301 68.7295 85.7979 69.6605 86.1345C70.3106 86.3669 70.4631 86.5592 70.4631 86.8157C70.4631 87.0721 70.1822 87.3446 69.7167 87.3446C69.3324 87.3375 68.9553 87.2385 68.6171 87.0561L68.4727 86.968L68.2078 87.9457L68.288 88.0018C68.7133 88.2165 69.184 88.3264 69.6605 88.3223C71.1052 88.3223 71.6108 87.4729 71.6108 86.7195C71.6108 85.9662 71.1935 85.5575 70.2785 85.2209L70.3427 85.2129ZM44.7079 83.1533C44.2509 83.1467 43.7942 83.1816 43.3435 83.2575H43.2311V88.2422H44.3628V86.439C44.4616 86.4477 44.5609 86.4477 44.6597 86.439C45.2466 86.4714 45.8229 86.2729 46.2649 85.886C46.4157 85.7302 46.5333 85.5455 46.6105 85.343C46.6878 85.1405 46.7231 84.9245 46.7144 84.708C46.7193 84.4878 46.6751 84.2692 46.5848 84.0682C46.4946 83.8672 46.3607 83.6888 46.1927 83.5459C45.7397 83.2355 45.1896 83.0989 44.6437 83.1613L44.7079 83.1533ZM44.6597 85.5575H44.3628V84.147H44.74C45.1333 84.147 45.5908 84.2672 45.5908 84.8282C45.5908 85.3892 45.2296 85.5094 44.5956 85.5094L44.6597 85.5575ZM89.7092 85.0206C89.7092 85.4453 89.7092 85.8941 89.7092 86.3589C89.5407 86.0223 89.3561 85.6777 89.1635 85.3411L87.8794 83.2174H86.6755V88.2823H87.7429V86.431C87.7429 85.8701 87.7429 85.3972 87.7429 84.9484C87.9194 85.301 88.1201 85.6777 88.3689 86.0944L89.6611 88.2823H90.7767V83.2174H89.7092V85.0206ZM99.1477 83.2174H98.0161V88.2823H101.13V87.2725H99.0835L99.1477 83.2174ZM95.0304 83.2174H93.7222L92.117 88.114L92.0689 88.2823H93.2407L93.658 86.9199H94.9903L95.3996 88.1941V88.2823H96.5955L94.9903 83.3055L95.0304 83.2174ZM93.9148 85.9982L94.2359 84.9725C94.2359 84.8362 94.3081 84.6839 94.3482 84.5397L94.4686 84.9805L94.7977 85.9982H93.9148ZM144.205 84.123C144.511 84.1167 144.814 84.174 145.096 84.2912L145.233 84.3554L145.481 83.4097L145.393 83.3616C145.008 83.1967 144.592 83.12 144.173 83.1372C143.814 83.1129 143.454 83.165 143.116 83.2899C142.779 83.4149 142.472 83.6099 142.215 83.8622C141.959 84.1144 141.759 84.4181 141.629 84.7531C141.499 85.0882 141.441 85.447 141.46 85.8059C141.439 86.1497 141.491 86.4941 141.614 86.8159C141.737 87.1377 141.928 87.4292 142.174 87.6709C142.42 87.9125 142.715 88.0986 143.039 88.2165C143.363 88.3345 143.709 88.3815 144.053 88.3544C144.497 88.3687 144.939 88.2923 145.353 88.13H145.441L145.257 87.1844L145.104 87.2484C144.814 87.3558 144.507 87.4101 144.197 87.4087C143.985 87.424 143.772 87.3926 143.573 87.3167C143.375 87.2407 143.195 87.1221 143.047 86.9692C142.899 86.8163 142.787 86.6329 142.718 86.4319C142.649 86.2309 142.625 86.0172 142.648 85.8059C142.614 85.5928 142.627 85.3747 142.687 85.1672C142.747 84.9597 142.852 84.768 142.994 84.6057C143.137 84.4434 143.314 84.3145 143.512 84.2283C143.71 84.1421 143.925 84.1007 144.141 84.1069L144.205 84.123ZM138.86 88.2823H139.935V83.2174H138.796L138.86 88.2823ZM133.691 84.2031H135.064V88.2823H136.195V84.2031H137.528V83.2174H133.635L133.691 84.2031ZM148.748 85.2369C148.082 84.9805 147.905 84.8362 147.905 84.5637C147.905 84.2913 148.082 84.115 148.571 84.115C148.886 84.1119 149.197 84.1833 149.478 84.3233L149.615 84.4035L149.896 83.4418L149.799 83.3937C149.425 83.2114 149.012 83.1233 148.595 83.1372C147.512 83.1372 146.758 83.7543 146.758 84.6519C146.758 85.3331 147.215 85.83 148.146 86.1666C148.788 86.399 148.949 86.5913 148.949 86.8477C148.949 87.1042 148.668 87.3767 148.202 87.3767C147.818 87.3724 147.44 87.2733 147.103 87.0881L146.958 87L146.693 87.9777L146.766 88.0339C147.194 88.2486 147.667 88.3585 148.146 88.3544C149.583 88.3544 150.096 87.5049 150.096 86.7516C150.096 85.9982 149.567 85.5575 148.684 85.2209L148.748 85.2369ZM109.365 84.123C109.67 84.1167 109.974 84.174 110.256 84.2912L110.392 84.3554L110.641 83.4097L110.553 83.3616C110.168 83.1967 109.751 83.12 109.333 83.1372C108.974 83.1129 108.613 83.165 108.276 83.2899C107.938 83.4149 107.631 83.6099 107.375 83.8622C107.119 84.1144 106.919 84.4181 106.789 84.7531C106.658 85.0882 106.601 85.447 106.62 85.8059C106.598 86.1497 106.651 86.4941 106.774 86.8159C106.897 87.1377 107.088 87.4292 107.334 87.6709C107.579 87.9125 107.874 88.0986 108.199 88.2165C108.523 88.3345 108.868 88.3815 109.212 88.3544C109.657 88.3703 110.099 88.2939 110.512 88.13H110.609L110.416 87.1844L110.264 87.2484C109.974 87.3565 109.666 87.4108 109.357 87.4087C109.145 87.424 108.931 87.3926 108.733 87.3167C108.534 87.2407 108.354 87.1221 108.207 86.9692C108.059 86.8163 107.947 86.6329 107.878 86.4319C107.809 86.2309 107.785 86.0172 107.808 85.8059C107.773 85.5928 107.787 85.3747 107.846 85.1672C107.906 84.9597 108.011 84.768 108.154 84.6057C108.296 84.4434 108.473 84.3145 108.671 84.2283C108.87 84.1421 109.084 84.1007 109.301 84.1069L109.365 84.123ZM114.036 83.1292C113.698 83.1274 113.363 83.1968 113.053 83.3328C112.743 83.4689 112.466 83.6685 112.239 83.9188C112.012 84.1691 111.84 84.4644 111.735 84.7854C111.629 85.1064 111.593 85.4459 111.628 85.7819C111.598 86.1077 111.636 86.4361 111.74 86.7463C111.844 87.0565 112.012 87.3417 112.232 87.5837C112.453 87.8257 112.721 88.0192 113.021 88.1519C113.32 88.2846 113.644 88.3535 113.972 88.3544C115.448 88.3544 116.379 87.3125 116.379 85.6937C116.417 85.3605 116.381 85.0231 116.276 84.7047C116.171 84.3863 115.998 84.0943 115.769 83.8486C115.541 83.6029 115.262 83.4093 114.952 83.281C114.642 83.1527 114.307 83.0928 113.972 83.1052L114.036 83.1292ZM114.036 87.3927C113.233 87.3927 112.824 86.5913 112.824 85.7899C112.824 84.9885 113.145 84.123 114.036 84.123C114.927 84.123 115.232 84.9725 115.232 85.7258C115.143 86.7276 114.678 87.3767 113.948 87.3767L114.036 87.3927ZM119.742 85.2369C119.076 84.9805 118.9 84.8362 118.9 84.5637C118.9 84.2913 119.076 84.115 119.566 84.115C119.88 84.1119 120.191 84.1833 120.473 84.3233L120.609 84.4035L120.89 83.4418L120.794 83.3937C120.419 83.2114 120.006 83.1233 119.59 83.1372C118.506 83.1372 117.752 83.7543 117.752 84.6519C117.752 85.3331 118.209 85.83 119.14 86.1666C119.782 86.399 119.943 86.5913 119.943 86.8477C119.943 87.1042 119.662 87.3767 119.197 87.3767C118.812 87.3724 118.434 87.2733 118.097 87.0881L117.952 87L117.688 87.9777L117.768 88.0339C118.193 88.2485 118.664 88.3584 119.14 88.3544C120.585 88.3544 121.091 87.5049 121.091 86.7516C121.091 85.9982 120.561 85.5575 119.654 85.2209L119.742 85.2369ZM130.577 86.1425H132.391V85.1808H130.577V84.1951H132.495V83.2174H129.446V88.2823H132.608V87.3045H130.577V86.1425ZM127.551 83.2174H126.195L125.505 85.2289C125.352 85.6777 125.232 86.1024 125.136 86.4551C125.039 86.0544 124.927 85.6536 124.807 85.2369L124.173 83.3055V83.2174H122.808L122.479 88.146V88.2823H123.563L123.675 86.2227C123.675 85.8781 123.675 85.4854 123.731 85.0686C123.819 85.4052 123.916 85.7498 124.012 86.0784L124.686 88.2182H125.545L126.275 86.0544C126.404 85.7097 126.524 85.3411 126.629 84.9805C126.629 85.3331 126.628 85.6857 126.677 86.0143L126.781 88.2823H127.897L127.608 83.3376L127.551 83.2174Z" fill="#282525"/>
</g>
</g>
<defs>
<clipPath id="clip0_282_8089">
<rect width="150" height="150" rx="30" fill="white"/>
</clipPath>
<clipPath id="clip1_282_8089">
<rect width="148.889" height="34.4444" fill="white" transform="translate(1.11108 56.6667)"/>
</clipPath>
</defs>
</svg>

<svg width="150" height="150" fill="none" xmlns="http://www.w3.org/2000/svg"><g clip-path="url(#clip0_282_8089)"><g clip-path="url(#clip1_282_8089)"><path d="M18.359 91.111c9.525 0 17.247-7.71 17.247-17.222S27.884 56.667 18.36 56.667c-9.526 0-17.248 7.71-17.248 17.222 0 9.511 7.722 17.222 17.248 17.222z" fill="#282525"/><path d="M28.88 76.31a3.213 3.213 0 01-5.307-1.998 3.2 3.2 0 011.044-2.796 3.212 3.212 0 014.264-.015l.626-.722a4.16 4.16 0 10-4.455 6.93 4.155 4.155 0 004.455-.646l-.626-.754zm-8.635-3.68a2.779 2.779 0 00-2.769-2.765H7.845v8.015H8.8v-2.516h2.8v-.954H8.8v-3.623h4.816v7.093h.955v-2.516h2.945c.172 0 .344-.016.514-.049l1.107 2.565h1.012l-1.252-2.901a2.758 2.758 0 001.348-2.348zm-2.769 1.812h-2.945V70.82h2.945a1.816 1.816 0 011.814 1.81 1.81 1.81 0 01-1.814 1.812z" fill="#fff"/><path d="M24.144 67.38l-.87-.394-2.265 4.984.87.394 2.265-4.984z" fill="#DB0A88"/><path d="M125.938 76.333a7.06 7.06 0 01-5.809-3.013 7.036 7.036 0 011.066-9.268 7.06 7.06 0 019.342-.084l1.373-1.603a9.169 9.169 0 00-13.7 1.969 9.133 9.133 0 000 9.886 9.158 9.158 0 009.006 4.108 9.167 9.167 0 004.694-2.139l-1.373-1.603a7.02 7.02 0 01-4.599 1.747zm-14.896-1.81L100.608 60.44h-2.094v17.695h2.094V64.064l10.434 14.072h2.095V60.441h-2.095v14.081zm-67.9 3.613h2.104V70.34h9.286v-2.092H45.27v-5.706h10.89v-2.1H43.168l-.024 17.695zm37.434 0h12.986v-2.091H82.695v-5.706h9.286v-2.092h-9.286v-5.706h10.89v-2.1H80.6l-.024 17.695zm66.992-17.695v7.806h-9.848v-7.806h-2.094v17.695h2.094V70.34h9.848v7.797h2.095V60.441h-2.095zm-72.474 6.083a6.086 6.086 0 00-1.786-4.299 6.104 6.104 0 00-4.306-1.784h-8.908v17.695h2.094v-5.53h6.838a5.905 5.905 0 001.14-.12l2.408 5.61h2.215l-2.753-6.41a6.063 6.063 0 003.082-5.162h-.024zm-6.092 4.007h-6.838v-7.958h6.838a4.017 4.017 0 014.135 2.337 4.002 4.002 0 01-.996 4.638 4.014 4.014 0 01-3.139.983zm13.813 12.574a2.412 2.412 0 00-2.301 1.656c-.105.321-.142.66-.107.997a2.354 2.354 0 002.352 2.572c1.477 0 2.408-1.041 2.408-2.66a2.329 2.329 0 00-1.396-2.373 2.337 2.337 0 00-.956-.192zm0 4.264c-.803 0-1.204-.802-1.204-1.603 0-.802.313-1.667 1.204-1.667.89 0 1.204.85 1.204 1.603-.032 1.026-.506 1.675-1.236 1.675l.032-.008zm-5 .89h1.124v-5.066h-1.132l.008 5.065zm-26.317-1.147l-.088-.336a1.498 1.498 0 00-.53-.906 1.42 1.42 0 00.28-2.284 2.347 2.347 0 00-1.564-.417 7.594 7.594 0 00-1.357.112h-.104v4.977h1.108v-1.947h.313c.4 0 .602.12.746.745.073.397.183.786.329 1.162v.072h1.188l-.096-.184a8.003 8.003 0 01-.225-.994zm-1.838-1.715h-.417v-1.282c.139-.01.278-.01.417 0 .37 0 .803.112.803.641s-.297.633-.803.633v.008zm25.298-.168c-.659-.257-.803-.4-.803-.673s.177-.45.666-.45c.315-.002.626.07.907.21l.145.08.272-.962-.088-.048a2.618 2.618 0 00-1.212-.257c-1.083 0-1.838.617-1.838 1.515 0 .681.458 1.178 1.389 1.514.642.233.802.425.802.682 0 .256-.28.529-.746.529a2.411 2.411 0 01-1.132-.257l-.144-.088-.265.978.08.056c.426.215.896.324 1.373.32 1.444 0 1.95-.849 1.95-1.602 0-.754-.441-1.218-1.388-1.555l.032.008zm-19.616-2.124a2.412 2.412 0 00-2.3 1.656 2.4 2.4 0 00-.108.997 2.352 2.352 0 001.399 2.372c.3.133.625.2.953.2 1.477 0 2.408-1.041 2.408-2.66a2.33 2.33 0 00-2.352-2.565zm0 4.264c-.802 0-1.204-.802-1.204-1.603 0-.802.313-1.667 1.204-1.667s1.204.85 1.204 1.603c-.032 1.026-.505 1.675-1.236 1.675l.032-.008zm9.631-1.25h1.814v-.962h-1.814v-.986h1.918v-.978h-3.05v5.065h3.163v-.977h-2.03v-1.163zm-5.738 2.14h1.132v-2.052h1.717v-.97H60.31V84.17h1.91v-.978h-3.04l.056 5.065zm11.108-3.046c-.658-.257-.843-.4-.843-.673s.177-.45.666-.45c.315-.002.626.07.907.21l.145.08.272-.962-.088-.048a2.62 2.62 0 00-1.292-.265c-1.084 0-1.838.617-1.838 1.515 0 .681.457 1.178 1.388 1.514.65.233.803.425.803.682 0 .256-.28.529-.746.529a2.41 2.41 0 01-1.1-.289l-.144-.088-.265.978.08.056c.425.215.896.324 1.373.32 1.444 0 1.95-.85 1.95-1.603s-.418-1.161-1.333-1.498l.065-.008zm-25.635-2.06a7.559 7.559 0 00-1.364.104h-.113v4.985h1.132V86.44c.099.009.198.009.297 0a2.249 2.249 0 001.605-.553 1.6 1.6 0 00.45-1.178 1.48 1.48 0 00-.522-1.162 2.282 2.282 0 00-1.55-.385l.065-.008zm-.048 2.404h-.297v-1.41h.377c.393 0 .85.12.85.681s-.36.681-.994.681l.064.049zm45.05-.536v1.338a20.934 20.934 0 00-.546-1.018l-1.285-2.124h-1.204v5.065h1.068v-3.334c.176.353.377.73.626 1.146l1.292 2.188h1.116v-5.065h-1.068v1.804zm9.438-1.804h-1.132v5.065h3.114v-1.01h-2.046l.064-4.055zm-4.118 0h-1.308l-1.605 4.897-.048.168h1.172l.417-1.362h1.332l.41 1.274v.088h1.195l-1.605-4.977.04-.088zm-1.115 2.781l.32-1.026c0-.136.073-.288.113-.432l.12.44.33 1.018h-.883zm50.29-1.875a2.21 2.21 0 01.891.168l.137.064.248-.945-.088-.048a2.804 2.804 0 00-1.22-.225 2.552 2.552 0 00-1.958.725 2.542 2.542 0 00-.755 1.944 2.416 2.416 0 00.714 1.865 2.411 2.411 0 001.879.683c.444.015.886-.062 1.3-.224h.088l-.184-.946-.153.064a2.55 2.55 0 01-.907.16 1.457 1.457 0 01-1.479-.976 1.446 1.446 0 01-.07-.626 1.467 1.467 0 011.493-1.7l.064.017zm-5.345 4.16h1.075v-5.066h-1.139l.064 5.065zm-5.169-4.08h1.373v4.08h1.131v-4.08h1.333v-.986h-3.893l.056.986zm15.057 1.034c-.666-.256-.843-.4-.843-.673s.177-.449.666-.449a1.99 1.99 0 01.907.208l.137.08.281-.961-.097-.048a2.553 2.553 0 00-1.204-.257c-1.083 0-1.837.617-1.837 1.515 0 .681.457 1.178 1.388 1.515.642.232.803.424.803.68 0 .257-.281.53-.747.53a2.338 2.338 0 01-1.099-.289l-.145-.088-.265.978.073.056a3.02 3.02 0 001.38.32c1.437 0 1.95-.85 1.95-1.602 0-.754-.529-1.194-1.412-1.531l.064.016zm-39.383-1.114c.305-.006.609.051.891.168l.136.064.249-.945-.088-.048a2.806 2.806 0 00-1.22-.225 2.55 2.55 0 00-2.544 1.616 2.524 2.524 0 00-.169 1.053 2.4 2.4 0 001.579 2.41c.324.119.669.166 1.013.138a3.21 3.21 0 001.3-.224h.097l-.193-.946-.152.064a2.55 2.55 0 01-.907.16 1.455 1.455 0 01-1.549-1.602 1.467 1.467 0 011.493-1.7l.064.017zm4.671-.994a2.415 2.415 0 00-1.797.79 2.402 2.402 0 00-.611 1.863 2.354 2.354 0 002.344 2.572c1.476 0 2.407-1.041 2.407-2.66a2.32 2.32 0 00-.61-1.845 2.33 2.33 0 00-1.797-.744l.064.024zm0 4.264c-.803 0-1.212-.802-1.212-1.603 0-.802.321-1.667 1.212-1.667s1.196.85 1.196 1.603c-.089 1.002-.554 1.65-1.284 1.65l.088.017zm5.706-2.156c-.666-.256-.842-.4-.842-.673s.176-.449.666-.449c.314-.003.625.068.907.208l.136.08.281-.961-.096-.048a2.558 2.558 0 00-1.204-.257c-1.084 0-1.838.617-1.838 1.515 0 .681.457 1.178 1.388 1.515.642.232.803.424.803.68 0 .257-.281.53-.746.53a2.338 2.338 0 01-1.1-.289l-.145-.088-.264.978.08.056a2.99 2.99 0 001.372.32c1.445 0 1.951-.85 1.951-1.602 0-.754-.53-1.194-1.437-1.531l.088.016zm10.835.906h1.814v-.962h-1.814v-.986h1.918v-.978h-3.049v5.065h3.162v-.977h-2.031v-1.163zm-3.026-2.926h-1.356l-.69 2.012a20.25 20.25 0 00-.369 1.226c-.097-.4-.209-.801-.329-1.218l-.634-1.931v-.089h-1.365l-.329 4.929v.136h1.084l.112-2.06c0-.344 0-.737.056-1.153.088.336.185.68.281 1.01l.674 2.14h.859l.73-2.165c.129-.344.249-.713.354-1.073 0 .352-.001.705.048 1.033l.104 2.268h1.116l-.289-4.944-.057-.12z" fill="#282525"/></g></g><defs><clipPath id="clip0_282_8089"><rect width="150" height="150" rx="30" fill="#fff"/></clipPath><clipPath id="clip1_282_8089"><path fill="#fff" transform="translate(1.111 56.667)" d="M0 0h148.889v34.444H0z"/></clipPath></defs></svg>
